X: 28531
T: Munster Rake, The
R: slip jig
M: 9/8
K: Gmajor
~G3 AGE EDE|GBG AGE ~c2e|dBG AGE EDE|GBG AGE ~G2D|
G/A/B G AGE EDE|GBG AGE ~c2e|dBG AGE EDE|G/A/BG AGE ~G2e||
dBG GBG .e/.f/ge|dBG GBG ~A2e|dBG GBG .e/.f/ge|dBG AGE ~G2E|
dBG GBG .e/.f/ge|dBG GBG ~A3|dBG gBB AGE|G/A/BG AGE ~G2e||

